X:1
T:Title
%%score { ( 1 3 5 ) | ( 2 4 ) }
L:1/8
M:3/4
K:Ab
V:1 treble nm="Grand Piano"
V:3 treble 
V:5 treble 
V:2 bass 
V:4 bass 
V:1
 z2 z[Q:1/4=85] [CE] [CA]>B | c3 [Fd] [Ec]>[DB] | [CA]3 [CA] G>A | B3 E [EA]>B |[M:3/8] c3 | %5
 [CE][CA]>B |[M:3/4] c3 [Fd] c>B | A3 [FA] [EG]>F | %8
[M:27/32] z/4 z/4 z/4 z/4 z/4 z/4 z/4 z/4 z/4 z/4 z/4 z/4 z/4 z/4 z/ B/4-B/4-B/4-B/4-B/4-B/4-B/-<B/ z/4 | %9
[M:3/8] A3 | (3:2:4A3/2 A2- A/4G3/4 |[M:3/4] z2 z [GB]- [GB]/4 z/4 z/ z | z2 z c- c/4 z/4 z/ z | %13
 [Gd]3- [Gd]/4 z/4 z/ (3:2:2[Gd]2 c |[M:3/8] e3 | (3:2:4E3/2 A2- A/4[GB]3/4 | %16
[M:3/4] c3- c/4 z/4 z/ (3:2:2e2 e | z2 z [Fd]- [Fd]/4 z/4 z/ z | %18
[M:33/32] c/4-c/4-c/4-c/4-c/4-c/4-c/4-c/4-c/4-c/4-c/4-c/4-c/4-c/4-c/4-c/-<c/ z/4 z/ B/4-B/4-B/4-B/4-B/4-B/-<B/ z/ | %19
[M:3/8] [CA]3 |] %20
V:2
 z2 z [A,,A,] [A,,A,]>[E,G,E] | [A,E]3 [D,A,] [E,A,]>[E,G,] | [A,,A,]3 [A,,A,] [E,B,D]>[E,A,C] | %3
 [E,G,E]3 [D,G,] [C,A,]>[E,G,E] |[M:3/8] [A,E]3 | [A,,A,][A,,A,]>[E,G,D] | %6
[M:3/4] [A,E]3 [D,A,] [E,A,E]>[=E,G,D] | [F,A,C]3 [D,A,] [D,A,]>[D,A,D] | %8
[M:27/32] [E,A,C]/4-[E,A,C]/4-[E,A,C]/4-[E,A,C]/4-[E,A,C]/4-[E,A,C]/4-[E,A,C]/4-[E,A,C]/4-[E,A,C]/-<[E,A,C]/[E,A,E]/-<[E,A,E]/E/4-E/4-E/4-E/4-E/-<E/[A,CE]3/4 | %9
[M:3/8] [A,CE]3 | (3:2:4[A,CE]3/2 [A,CE]2- [A,CE]/4[A,B,E]3/4 | %11
[M:3/4] [E,D]3- [E,D]/4 z/4 z/ (3:2:2[E,D]2[K:treble] [A,CE] | %12
 z2 z [A,EA]- [A,EA]/4 z/4 z/ z[K:bass] | [E,B,]3- [E,B,]/4 z/4 z/ (3:2:2[E,E]2[K:treble] [A,EA] | %14
[M:3/8] [A,CA]3 | (3:2:4[A,C]3/2 [A,CE]2- [A,CE]/4[E,E]3/4 | %16
[M:3/4] z2 z [A,EA]- [A,EA]/4 z/4 z/ z | [D,A,]3- [D,A,]/4 z/4 z/ (3:2:2[D,D]2 [D,D] | %18
[M:33/32] E/4-E/4-E/4-E/4-E/4-E/4-E/4-E/4-E/4-E/4-E/4-E/4-E/4-E/4-E/-<E/-[A,-C-E]/4[A,C]/-<[A,C]/ z/4 z/4 z/4 z/4 z/4 z/ [A,,A,]3/4 | %19
[M:3/8] [A,,A,]3 |] %20
V:3
 x6 | x6 | x6 | x6 |[M:3/8] x3 | x3 |[M:3/4] x6 | x6 | %8
[M:27/32] E/4-E/4-E/4-E/4-E/4-E/4-E/4-E/4-E/-<E/c/-<c/ z/4 z/4 z/4 z/4 z/4 z/4 z/ A3/4 | %9
[M:3/8] x3 | x3 |[M:3/4] [GB]3- [GB]/4 z/4 z/ (3:2:2[GB]2 A | c3- c/4 z/4 z/ (3:2:2[Ac]2 [GB] | %13
 z2 z [Gd]- [Gd]/4 z/4 z/ z |[M:3/8] x3 | x3 |[M:3/4] z2 z c- c/4 z/4 z/ z | %17
 [Fd]3- [Fd]/4 z/4 z/ (3:2:2[FA]2 [=EB] | %18
[M:33/32] z/4 z/4 z/4 z/4 z/4 z/4 z/4 z/4 z/4 z/4 z/4 z/4 z/4 z/4 z/4 z/4 z/4 z/4 z/4 z/4 z/4 z/4 z/4 z/4 z/4 z/4 z/4 z/4 z/ [CA]3/4 | %19
[M:3/8] x3 |] %20
V:4
 x6 | x6 | x6 | x6 |[M:3/8] x3 | x3 |[M:3/4] x6 | x6 | %8
[M:27/32] z/4 z/4 z/4 z/4 z/4 z/4 z/4 z/4 z/4 z/4 z/4 z/4 z/4 z/4 z/ [E,D]/4-[E,D]/4-[E,D]/4-[E,D]/4-[E,D]/4-[E,D]/4-[E,D]/-<[E,D]/ z/4 | %9
[M:3/8] x3 | x3 |[M:3/4] z2 z [E,D]- [E,D]/4 z/4 z/ z[K:treble] | %12
 [A,E]3- [A,E]/4 z/4 z/ (3:2:2[E,E]2[K:bass] [E,E] | z2 z [E,E]- [E,E]/4 z/4 z/ z[K:treble] | %14
[M:3/8] x3 | x3 |[M:3/4] [A,EA]3- [A,EA]/4 z/4 z/ (3:2:2[A,C_G]2 [A,CG] | %17
 z2 z [D,A,]- [D,A,]/4 z/4 z/ z | %18
[M:33/32] [E,A,]/4-[E,A,]/4-[E,A,]/4-[E,A,]/4-[E,A,]/4-[E,A,]/4-[E,A,]/4-[E,A,]/4-[E,A,]/4-[E,A,]/4-[E,A,]/4-[E,A,]/4-[E,A,]/4-[E,A,]/4-[E,A,]/-<[E,A,]/E,/-<E,/[E,G,D]/4-[E,G,D]/4-[E,G,D]/4-[E,G,D]/4-[E,G,D]/4-[E,G,D]/-<[E,G,D]/ z/ | %19
[M:3/8] x3 |] %20
V:5
 x6 | x6 | x6 | x6 |[M:3/8] x3 | x3 |[M:3/4] x6 | x6 |[M:27/32] x27/4 |[M:3/8] x3 | x3 | %11
[M:3/4] x6 | x6 | x6 |[M:3/8] x3 | x3 |[M:3/4] x6 | x6 | %18
[M:33/32] z/4 z/4 z/4 z/4 z/4 z/4 z/4 z/4 z/4 z/4 z/4 z/4 z/4 z/4 z/4 z/4 z/ E/4-E/-<E/ z/4 z/4 z/4 z/4 z/4 z/4 z/4 z/4 z/ | %19
[M:3/8] x3 |] %20

